svg/heart_minus.svg

<svg xmlns="http://www.w3.org/2000/svg" viewBox="0 0 24 24"><path d="M12 18c0 1 .25 1.92.67 2.74l-.67.61-1.45-1.32C5.4 15.36 2 12.27 2 8.5 2 5.41 4.42 3 7.5 3c1.74 0 3.41.81 4.5 2.08C13.09 3.81 14.76 3 16.5 3 19.58 3 22 5.41 22 8.5c0 1.43-.5 2.76-1.38 4.11-.79-.38-1.68-.61-2.62-.61-3.31 0-6 2.69-6 6m2-1v2h8v-2z"/></svg>

<?xml version="1.0" encoding="UTF-8"?><!DOCTYPE svg PUBLIC "-//W3C//DTD SVG 1.1//EN" "http://www.w3.org/Graphics/SVG/1.1/DTD/svg11.dtd"><svg xmlns="http://www.w3.org/2000/svg" xmlns:xlink="http://www.w3.org/1999/xlink" version="1.1" id="mdi-heart-minus" width="24" height="24" viewBox="0 0 24 24"><path d="M12 18C12 19 12.25 19.92 12.67 20.74L12 21.35L10.55 20.03C5.4 15.36 2 12.27 2 8.5C2 5.41 4.42 3 7.5 3C9.24 3 10.91 3.81 12 5.08C13.09 3.81 14.76 3 16.5 3C19.58 3 22 5.41 22 8.5C22 9.93 21.5 11.26 20.62 12.61C19.83 12.23 18.94 12 18 12C14.69 12 12 14.69 12 18M14 17V19H22V17H14Z" /></svg>
